static/img/kroki/467a289c50c2804283d14cd14af59669.svg

<?xml version="1.0" encoding="us-ascii" standalone="no"?><svg xmlns="http://www.w3.org/2000/svg" xmlns:xlink="http://www.w3.org/1999/xlink" contentStyleType="text/css" height="252px" preserveAspectRatio="none" style="width:388px;height:252px;" version="1.1" viewBox="0 0 388 252" width="388px" zoomAndPan="magnify"><defs/><g><!--class aws_iam_role--><g id="elem_aws_iam_role"><rect codeLine="22" fill="#3D176E" height="39.7891" id="aws_iam_role" rx="2.5" ry="2.5" style="stroke:#000D19;stroke-width:0.5;" width="157" x="62" y="7"/><ellipse cx="77" cy="26.8945" fill="#ADD1B2" rx="11" ry="11" style="stroke:#181818;stroke-width:1.0;"/><path d="M79.9688,32.5352 Q79.3906,32.832 78.75,32.9727 Q78.1094,33.1289 77.4063,33.1289 Q74.9063,33.1289 73.5781,31.4883 Q72.2656,29.832 72.2656,26.707 Q72.2656,23.582 73.5781,21.9258 Q74.9063,20.2695 77.4063,20.2695 Q78.1094,20.2695 78.75,20.4258 Q79.4063,20.582 79.9688,20.8789 L79.9688,23.5977 Q79.3438,23.0195 78.75,22.7539 Q78.1563,22.4727 77.5313,22.4727 Q76.1875,22.4727 75.5,23.5508 Q74.8125,24.6133 74.8125,26.707 Q74.8125,28.8008 75.5,29.8789 Q76.1875,30.9414 77.5313,30.9414 Q78.1563,30.9414 78.75,30.6758 Q79.3438,30.3945 79.9688,29.8164 L79.9688,32.5352 Z " fill="#000000"/><text fill="#D9B8FF" font-family="Helvetica" font-size="17" lengthAdjust="spacing" textLength="115" x="96" y="32.7798">aws_iam_role</text></g><!--class aws_sagemaker_algorithm--><g id="elem_aws_sagemaker_algorithm"><rect codeLine="24" fill="#3D176E" height="39.7891" id="aws_sagemaker_algorithm" rx="2.5" ry="2.5" style="stroke:#000D19;stroke-width:0.5;" width="267" x="7" y="206.58"/><ellipse cx="22" cy="226.4745" fill="#ADD1B2" rx="11" ry="11" style="stroke:#181818;stroke-width:1.0;"/><path d="M24.9688,232.1152 Q24.3906,232.412 23.75,232.5527 Q23.1094,232.7089 22.4063,232.7089 Q19.9063,232.7089 18.5781,231.0683 Q17.2656,229.412 17.2656,226.287 Q17.2656,223.162 18.5781,221.5058 Q19.9063,219.8495 22.4063,219.8495 Q23.1094,219.8495 23.75,220.0058 Q24.4063,220.162 24.9688,220.4589 L24.9688,223.1777 Q24.3438,222.5995 23.75,222.3339 Q23.1563,222.0527 22.5313,222.0527 Q21.1875,222.0527 20.5,223.1308 Q19.8125,224.1933 19.8125,226.287 Q19.8125,228.3808 20.5,229.4589 Q21.1875,230.5214 22.5313,230.5214 Q23.1563,230.5214 23.75,230.2558 Q24.3438,229.9745 24.9688,229.3964 L24.9688,232.1152 Z " fill="#000000"/><text fill="#D9B8FF" font-family="Helvetica" font-size="17" lengthAdjust="spacing" textLength="225" x="41" y="232.3598">aws_sagemaker_algorithm</text></g><!--class aws_sagemaker_training_job--><g id="elem_aws_sagemaker_training_job"><rect codeLine="26" fill="#3D176E" height="39.7891" id="aws_sagemaker_training_job" rx="2.5" ry="2.5" style="stroke:#000D19;stroke-width:0.5;" width="285" x="96" y="106.79"/><ellipse cx="111" cy="126.6845" fill="#ADD1B2" rx="11" ry="11" style="stroke:#181818;stroke-width:1.0;"/><path d="M113.9688,132.3252 Q113.3906,132.622 112.75,132.7627 Q112.1094,132.9189 111.4063,132.9189 Q108.9063,132.9189 107.5781,131.2783 Q106.2656,129.622 106.2656,126.497 Q106.2656,123.372 107.5781,121.7158 Q108.9063,120.0595 111.4063,120.0595 Q112.1094,120.0595 112.75,120.2158 Q113.4063,120.372 113.9688,120.6689 L113.9688,123.3877 Q113.3438,122.8095 112.75,122.5439 Q112.1563,122.2627 111.5313,122.2627 Q110.1875,122.2627 109.5,123.3408 Q108.8125,124.4033 108.8125,126.497 Q108.8125,128.5908 109.5,129.6689 Q110.1875,130.7314 111.5313,130.7314 Q112.1563,130.7314 112.75,130.4658 Q113.3438,130.1845 113.9688,129.6064 L113.9688,132.3252 Z " fill="#000000"/><text fill="#D9B8FF" font-family="Helvetica" font-size="17" lengthAdjust="spacing" textLength="243" x="130" y="132.5698">aws_sagemaker_training_job</text></g><!--link aws_iam_role to aws_sagemaker_algorithm--><g id="link_aws_iam_role_aws_sagemaker_algorithm"><path codeLine="28" d="M119.38,46.99 C104.78,61.7 86.59,83.41 78.5,106.79 C72.72,123.5 72.72,129.87 78.5,146.58 C85.89,167.95 101.73,187.93 115.54,202.44 " fill="none" id="aws_iam_role-to-aws_sagemaker_algorithm" style="stroke:#1A83AF;stroke-width:2.0;"/><polygon fill="#1A83AF" points="118.38,205.38,114.9748,196.1385,114.8948,201.7948,109.2385,201.7148,118.38,205.38" style="stroke:#1A83AF;stroke-width:2.0;"/></g><!--link aws_iam_role to aws_sagemaker_training_job--><g id="link_aws_iam_role_aws_sagemaker_training_job"><path codeLine="29" d="M159.86,47.22 C175.7,63.02 198.16,85.43 215.02,102.26 " fill="none" id="aws_iam_role-to-aws_sagemaker_training_job" style="stroke:#1A83AF;stroke-width:2.0;"/><polygon fill="#1A83AF" points="218.18,105.41,214.663,96.2105,214.6516,101.8673,208.9948,101.8559,218.18,105.41" style="stroke:#1A83AF;stroke-width:2.0;"/></g><!--link aws_sagemaker_training_job to aws_sagemaker_algorithm--><g id="link_aws_sagemaker_training_job_aws_sagemaker_algorithm"><path codeLine="30" d="M219.14,147.01 C203.3,162.81 180.84,185.22 163.98,202.05 " fill="none" id="aws_sagemaker_training_job-to-aws_sagemaker_algorithm" style="stroke:#1A83AF;stroke-width:2.0;"/><polygon fill="#1A83AF" points="160.82,205.2,170.0052,201.6459,164.3484,201.6573,164.337,196.0005,160.82,205.2" style="stroke:#1A83AF;stroke-width:2.0;"/></g><!--SRC=[ZPBDJiCm48JlVGfBFLTAY23j1IbKgk1I8SeDeMWJhnEJs8xMBb51l3lz0UGcfErrv_FCxCgbvCXGDMx35AeCoOvi9NK318ebHAQTczeG6mi18egxui9eTnPOWa9sZ_KxEfb3btWkPLvfj9PTUT8Tv5L1PgtvmTuHQBkLK3kFcjTWRU8SoMpjq2l3PzbKY2xPDHr7F8nli8SPuaW_I104F9nraRDH9_V-8rRo0rde7srf7FPgzYBsrCcMEy8hsLlqLn_i-0YSIrsmQs_sTEX46kbelYg1ctP72wYj7sCT4XgtQN3UsmfdKoxYV-678JZVNOv1QrC9AYLJ8_iSVNbZ2mKgg91Ig0j3qfLgaDZ-AQcthTCta-sX8z_9opXCfb6oU9tS3bbV_CAF6freSKdeDm00]--></g></svg>

<svg xmlns="http://www.w3.org/2000/svg" width="388" height="252" preserveAspectRatio="none" style="width:388px;height:252px"><rect width="157" height="39.789" x="62" y="7" fill="#3D176E" rx="2.5" ry="2.5" style="stroke:#000d19;stroke-width:.5"/><circle cx="77" cy="26.895" r="11" fill="#ADD1B2" style="stroke:#181818;stroke-width:1"/><path d="M79.969 32.535q-.578.297-1.219.438-.64.156-1.344.156-2.5 0-3.828-1.64-1.312-1.657-1.312-4.782t1.312-4.781q1.328-1.656 3.828-1.656.703 0 1.344.156.656.156 1.219.453v2.719q-.625-.578-1.219-.844-.594-.281-1.219-.281-1.344 0-2.031 1.078-.688 1.062-.688 3.156 0 2.094.688 3.172.688 1.062 2.031 1.062.625 0 1.219-.265.594-.281 1.219-.86v2.72Z"/><text x="96" y="32.78" fill="#D9B8FF" font-family="Helvetica" font-size="17" textLength="115">aws_iam_role</text><rect width="267" height="39.789" x="7" y="206.58" fill="#3D176E" rx="2.5" ry="2.5" style="stroke:#000d19;stroke-width:.5"/><circle cx="22" cy="226.475" r="11" fill="#ADD1B2" style="stroke:#181818;stroke-width:1"/><path d="M24.969 232.115q-.578.297-1.219.438-.64.156-1.344.156-2.5 0-3.828-1.64-1.312-1.657-1.312-4.782t1.312-4.781q1.328-1.656 3.828-1.656.703 0 1.344.156.656.156 1.219.453v2.719q-.625-.578-1.219-.844-.594-.281-1.219-.281-1.343 0-2.031 1.078-.688 1.062-.688 3.156 0 2.094.688 3.172.688 1.062 2.031 1.062.625 0 1.219-.265.594-.281 1.219-.86v2.72Z"/><text x="41" y="232.36" fill="#D9B8FF" font-family="Helvetica" font-size="17" textLength="225">aws_sagemaker_algorithm</text><rect width="285" height="39.789" x="96" y="106.79" fill="#3D176E" rx="2.5" ry="2.5" style="stroke:#000d19;stroke-width:.5"/><circle cx="111" cy="126.684" r="11" fill="#ADD1B2" style="stroke:#181818;stroke-width:1"/><path d="M113.969 132.325q-.578.297-1.219.438-.64.156-1.344.156-2.5 0-3.828-1.64-1.312-1.657-1.312-4.782t1.312-4.781q1.328-1.656 3.828-1.656.703 0 1.344.156.656.156 1.219.453v2.719q-.625-.579-1.219-.844-.594-.281-1.219-.281-1.344 0-2.031 1.078-.688 1.062-.688 3.156 0 2.094.688 3.172.688 1.062 2.031 1.062.625 0 1.219-.265.594-.281 1.219-.86v2.72Z"/><text x="130" y="132.57" fill="#D9B8FF" font-family="Helvetica" font-size="17" textLength="243">aws_sagemaker_training_job</text><path fill="none" d="M119.38 46.99c-14.6 14.71-32.79 36.42-40.88 59.8-5.78 16.71-5.78 23.08 0 39.79 7.39 21.37 23.23 41.35 37.04 55.86" style="stroke:#1a83af;stroke-width:2"/><path fill="#1A83AF" d="m118.38 205.38-3.405-9.242-.08 5.657-5.656-.08 9.141 3.665z" style="stroke:#1a83af;stroke-width:2"/><path fill="none" d="M159.86 47.22c15.84 15.8 38.3 38.21 55.16 55.04" style="stroke:#1a83af;stroke-width:2"/><path fill="#1A83AF" d="m218.18 105.41-3.517-9.2-.011 5.657-5.657-.011 9.185 3.554z" style="stroke:#1a83af;stroke-width:2"/><path fill="none" d="M219.14 147.01c-15.84 15.8-38.3 38.21-55.16 55.04" style="stroke:#1a83af;stroke-width:2"/><path fill="#1A83AF" d="m160.82 205.2 9.185-3.554-5.657.011-.011-5.657-3.517 9.2z" style="stroke:#1a83af;stroke-width:2"/></svg>
